svg/u1F319.svg

<svg viewBox="0 0 2600 2760.837" xmlns="http://www.w3.org/2000/svg"><path d="M1925.5 2105q-293.5 287-692.5 287-197 0-380.5-75.5t-327.5-223-144-223.5q0-49 35.5-83.5t82.5-34.5q39 0 82.5 28.5t143.5 61.5 220 33q206 0 380.5-103.5t272.5-276.5 98-370q0-127-37-233t-67-147-30-85q0-49 35-83.5t82-34.5q74 0 227 143t233 327 80 381q0 425-293.5 712z m-246.5-1445q68 106 101.5 225t33.5 241q0 230-113.5 429.5t-317.5 318.5-438 119q-117 0-230-30.5t-216-92.5q118 189 315 296.5t419 107.5q232 0 435-117.5t318-318.5 115-431q0-229-112.5-428t-309.5-319z"/></svg>

<svg viewBox="0 0 2600 2760.837" xmlns="http://www.w3.org/2000/svg"><path d="M1925.5 2105Q1632 2392 1233 2392q-197 0-380.5-75.5t-327.5-223T381 1870q0-49 35.5-83.5T499 1752q39 0 82.5 28.5T725 1842t220 33q206 0 380.5-103.5T1598 1495t98-370q0-127-37-233t-67-147-30-85q0-49 35-83.5t82-34.5q74 0 227 143t233 327 80 381q0 425-293.5 712zM1679 660q68 106 101.5 225t33.5 241q0 230-113.5 429.5T1383 1874t-438 119q-117 0-230-30.5T499 1870q118 189 315 296.5t419 107.5q232 0 435-117.5t318-318.5 115-431q0-229-112.5-428T1679 660z"/></svg>
